X:1781
T:New Road, The
T:New Post Office Reel, The
O:ireland
R:reel
H:Also in D, #698
D:Dervish: The Boys of Sligo
Z:id:hn-reel-300
M:C|
K:Dmix
DFEF D2AB|c2cG EFGE|DFEF D2AB|cAGE ED~D2|
DFEF D2AB|cAAG EFGE|Add^c dfed|=cAGE ED~D2:|
|:~f3e fage|f2df ageg|~f3e fage|fde^c Adde|
~f3e fage|f2df ageg|fage dfed|cAAG EFGE:|
"Variations:"
DFEF D2Ad|cAAG EFGE|DFEF D2Ad|cAGE ED~D2|
DFEF DFAB|c2cG EFGE|Add^c dfed|=cAGE ED~D2||
DFEF D2dB|cAGE EFGE|DF~F2 FGAd|cAGE ED~D2|
DFEF DFAB|cBcG EFGE|Add^c dfed|=cAGE ED~D2||
f2fe fage|fdge afde|~f3e fage|fded Adde|
~f3e fage|fdge afde|fage dfed|cAAG EFGE||
ef~f2 fage|f2df ageg|ef~f2 fage|f2e^c Adde|
fdge ~a3g|~f3g ageg|fage dfed|cAAG EFGE||
This file contains 100 reels (#301 - #400).
You can find more abc tune files at http://home1.swipnet.se/~w-11382/abc.htm
I've transcribed them as I have learnt them, which does not necessarily mean
that I play them that way nowadays. Many of the tunes include variations and
different versions. If there is a source (S:) or discography (D:) included the
version transcribed might still not be exactly as that source played the tune,
since I might have changed the tune around a bit when I learnt it.
The tunes were learnt from sessions, from friends or from recordings.
When I've included discography, it's often just a reference to what recordings
the tune appears on.
Last updated 21 May 2001.
(c) Copyright 1997-1998 Henrik Norbeck. This file:
- May be distributed freely (with restrictions below).
- May not be used for commercial purposes (such as printing a tune book to sell).
- This file (or parts of it) may not be made available on a web page for
download without permission from me.
- This copyright notice must be kept, except when e-mailing individual tunes.
- May be printed on paper for personal use.
- Questions? E-mail: henrik.norbeck@mailbox.swipnet.se






